img/icons/socials-facebook.svg

<svg width="32" height="32" viewBox="0 0 32 32" fill="none" xmlns="http://www.w3.org/2000/svg">
<g clip-path="url(#clip0_12756_2219)">
<path d="M16 0C7.164 0 0 7.164 0 16C0 24.836 7.164 32 16 32C24.836 32 32 24.836 32 16C32 7.16203 24.836 0 16 0ZM20.136 15.998L17.514 15.9999L17.512 25.5999H13.914V16H11.514V12.692L13.914 12.69L13.91 10.742C13.91 8.04204 14.642 6.40004 17.82 6.40004H20.468V9.71003H18.812C17.574 9.71003 17.514 10.172 17.514 11.034L17.51 12.69H20.4859L20.136 15.998Z" fill="white"/>
</g>
<defs>
<clipPath id="clip0_12756_2219">
<rect width="32" height="32" fill="white"/>
</clipPath>
</defs>
</svg>

<svg width="32" height="32" fill="none" xmlns="http://www.w3.org/2000/svg"><g clip-path="url(#a)"><path d="M16 0C7.164 0 0 7.164 0 16s7.164 16 16 16 16-7.164 16-16c0-8.838-7.164-16-16-16Zm4.136 15.998L17.514 16l-.002 9.6h-3.598V16h-2.4v-3.308l2.4-.002-.004-1.948c0-2.7.732-4.342 3.91-4.342h2.648v3.31h-1.656c-1.238 0-1.298.462-1.298 1.324l-.004 1.656h2.976l-.35 3.308Z" fill="#fff"/></g><defs><clipPath id="a"><path fill="#fff" d="M0 0h32v32H0z"/></clipPath></defs></svg>
